extras/source/gallery/symbols/Icon-Disk02-Green.svg

<svg enable-background="new 0 0 106 106" height="106" viewBox="0 0 106 106" width="106" xmlns="http://www.w3.org/2000/svg" xmlns:xlink="http://www.w3.org/1999/xlink"><linearGradient id="a" gradientUnits="userSpaceOnUse" x1="19.3125" x2="95.4414" y1="15.3867" y2="99.4156"><stop offset="0" stop-color="#6295d6"/><stop offset="1" stop-color="#355787"/></linearGradient><linearGradient id="b"><stop offset="0" stop-color="#25bf4c"/><stop offset="1" stop-color="#017731"/></linearGradient><linearGradient id="c" gradientUnits="userSpaceOnUse" x1="19.6221" x2="94.9913" xlink:href="#b" y1="15.7285" y2="98.9189"/><linearGradient id="d" gradientUnits="userSpaceOnUse" x1="75.4946" x2="30.5022" xlink:href="#b" y1="88.3936" y2="67.047"/><linearGradient id="e"><stop offset="0" stop-color="#fff"/><stop offset="1" stop-color="#7c7c7c"/></linearGradient><linearGradient id="f" gradientUnits="userSpaceOnUse" x1="35.522" x2="77.8694" xlink:href="#e" y1="67.3799" y2="94.5583"/><linearGradient id="g" gradientUnits="userSpaceOnUse" x1="53.5737" x2="29.5421" xlink:href="#b" y1="30.3472" y2="58.411"/><linearGradient id="h" gradientUnits="userSpaceOnUse" x1="28.2866" x2="80.0761" xlink:href="#e" y1="14.7358" y2="48.7486"/><linearGradient id="i" gradientUnits="userSpaceOnUse" x1="48.3989" x2="38.9186" y1="87.8174" y2="75.493"><stop offset="0" stop-color="#327a29"/><stop offset="1" stop-color="#233c17"/></linearGradient><linearGradient id="j"><stop offset="0" stop-color="#6dc386"/><stop offset=".9021" stop-color="#39a15e"/></linearGradient><linearGradient id="k" gradientUnits="userSpaceOnUse" x1="52.6187" x2="52.6187" xlink:href="#j" y1="28.7627" y2="35.3992"/><linearGradient id="l" gradientUnits="userSpaceOnUse" x1="52.6187" x2="52.6187" xlink:href="#j" y1="19.9927" y2="26.8663"/><linearGradient id="m" gradientUnits="userSpaceOnUse" x1="52.6187" x2="52.6187" xlink:href="#j" y1="38.0068" y2="43.9319"/><linearGradient id="n" gradientUnits="userSpaceOnUse" x1="74.9185" x2="90.3052" y1="53.0361" y2="53.0361"><stop offset="0" stop-color="#27447d"/><stop offset="1" stop-color="#1c2958"/></linearGradient><path d="m22.043 14.226c-4.183 0-7.585 3.402-7.585 7.584v60.678c0 4.182 3.403 7.584 7.585 7.584h55.622l13.113-13.113v-55.148c0-4.182-3.402-7.584-7.584-7.584h-61.151z" fill="url(#a)"/><path d="m83.194 13.752h-61.151c-4.444 0-8.059 3.615-8.059 8.059v60.677c0 4.444 3.615 8.06 8.059 8.06h55.426.393l.277-.278 12.836-12.836.278-.277v-.393-54.952c0-4.444-3.615-8.06-8.059-8.06zm-68.262 8.06c0-3.927 3.183-7.111 7.111-7.111h61.151c3.927 0 7.111 3.184 7.111 7.111v54.952l-12.836 12.836h-55.426c-3.928 0-7.111-3.185-7.111-7.111z" fill="#3a7c06"/><path d="m90.305 76.763v-54.952c0-3.926-3.184-7.11-7.11-7.11h-61.152c-3.928 0-7.111 3.184-7.111 7.11v60.678c0 3.927 3.184 7.11 7.111 7.11h55.426z" fill="url(#c)"/><path d="m75.636 88.796c-4.511 0-22.05 0-46.034 0v-21.012c0-1.309 1.061-2.37 2.37-2.37h41.294c1.309 0 2.37 1.062 2.37 2.37z" fill="url(#d)"/><path d="m74.689 89.27c-4.511 0-20.155 0-44.139 0v-20.538c0-1.31 1.061-2.37 2.369-2.37h39.398c1.31 0 2.371 1.061 2.371 2.37v20.538z" fill="url(#f)"/><path d="m80.903 46.264c0 1.309-1.061 2.37-2.37 2.37h-51.828c-1.309 0-2.37-1.062-2.37-2.37v-30.48h56.568z" fill="url(#g)"/><path d="m79.955 45.316c0 1.309-1.061 2.371-2.369 2.371h-49.932c-1.31 0-2.371-1.062-2.371-2.371v-30.48h54.672z" fill="url(#h)"/><path d="m48.422 84.54c0 1.309-1.062 2.37-2.371 2.37h-6.686c-1.31 0-2.37-1.062-2.37-2.37v-8.24c0-1.309 1.061-2.369 2.37-2.369h6.686c1.31 0 2.371 1.061 2.371 2.369z" fill="url(#i)" stroke="#3a7c06" stroke-width=".7111"/><g stroke="#eaeaea" stroke-width=".474"><path d="m77.515 32.508c0 1.31-1.061 2.371-2.369 2.371h-45.054c-1.31 0-2.37-1.061-2.37-2.371v-1.278c0-1.309 1.061-2.37 2.37-2.37h45.054c1.309 0 2.369 1.062 2.369 2.37z" fill="url(#k)"/><path d="m77.515 23.569c0 1.309-1.061 2.37-2.369 2.37h-45.054c-1.31 0-2.37-1.061-2.37-2.37v-1.278c0-1.309 1.061-2.37 2.37-2.37h45.054c1.309 0 2.369 1.062 2.369 2.37z" fill="url(#l)"/><path d="m77.515 41.447c0 1.31-1.061 2.37-2.369 2.37h-45.054c-1.31 0-2.37-1.061-2.37-2.37v-1.279c0-1.309 1.061-2.37 2.37-2.37h45.054c1.309 0 2.369 1.061 2.369 2.37z" fill="url(#m)"/></g><path d="m25.677 14.7s-9.836-1.877-10.745 7.11v60.678s-.039 3.74 2.69 5.567c0 0-1.367-2.053-1.367-5.549 0-2.488 0-60.795 0-60.795s-.177-6.281 9.422-7.011z" fill="#d2eff9" opacity=".6"/><path d="m87.891 16.474s.774 2.415.774 5.336v54.119l-12.088 12.562-1.658 1.107h2.551l12.836-12.836v-54.951c-.001 0 .061-2.861-2.415-5.337z" fill="url(#n)" opacity=".3"/></svg>

<?xml version="1.0" encoding="utf-8"?>
<!-- Generator: Adobe Illustrator 12.0.1, SVG Export Plug-In . SVG Version: 6.00 Build 51448)  -->
<!DOCTYPE svg PUBLIC "-//W3C//DTD SVG 1.1//EN" "http://www.w3.org/Graphics/SVG/1.1/DTD/svg11.dtd" [
	<!ENTITY ns_svg "http://www.w3.org/2000/svg">
	<!ENTITY ns_xlink "http://www.w3.org/1999/xlink">
]>
<svg  version="1.1" id="Layer_1" xmlns="&ns_svg;" xmlns:xlink="&ns_xlink;" width="106" height="106" viewBox="0 0 106 106"
	 overflow="visible" enable-background="new 0 0 106 106" xml:space="preserve">
<g>
	<g>
		<linearGradient id="XMLID_12_" gradientUnits="userSpaceOnUse" x1="19.3125" y1="15.3867" x2="95.4414" y2="99.4156">
			<stop  offset="0" style="stop-color:#6295D6"/>
			<stop  offset="1" style="stop-color:#355787"/>
		</linearGradient>
		<path fill="url(#XMLID_12_)" d="M22.043,14.226c-4.183,0-7.585,3.402-7.585,7.584v60.678c0,4.182,3.403,7.584,7.585,7.584h55.622
			l13.113-13.113V21.811c0-4.182-3.402-7.584-7.584-7.584H22.043z"/>
		<path fill="#3A7C06" d="M83.194,13.752H22.043c-4.444,0-8.059,3.615-8.059,8.059v60.677c0,4.444,3.615,8.06,8.059,8.06h55.426
			h0.393l0.277-0.278l12.836-12.836l0.278-0.277v-0.393V21.812C91.253,17.368,87.638,13.752,83.194,13.752L83.194,13.752z
			 M14.932,21.812c0-3.927,3.183-7.111,7.111-7.111h61.151c3.927,0,7.111,3.184,7.111,7.111v54.952l0,0l0,0L77.469,89.6H22.043
			c-3.928,0-7.111-3.185-7.111-7.111V21.812L14.932,21.812L14.932,21.812z"/>
	</g>
	<g>
		<linearGradient id="XMLID_13_" gradientUnits="userSpaceOnUse" x1="19.6221" y1="15.7285" x2="94.9913" y2="98.9189">
			<stop  offset="0" style="stop-color:#25BF4C"/>
			<stop  offset="1" style="stop-color:#017731"/>
		</linearGradient>
		<path fill="url(#XMLID_13_)" d="M90.305,76.763V21.811c0-3.926-3.184-7.11-7.11-7.11H22.043c-3.928,0-7.111,3.184-7.111,7.11
			v60.678c0,3.927,3.184,7.11,7.111,7.11h55.426L90.305,76.763z"/>
	</g>
	<linearGradient id="XMLID_14_" gradientUnits="userSpaceOnUse" x1="75.4946" y1="88.3936" x2="30.5022" y2="67.047">
		<stop  offset="0" style="stop-color:#25BF4C"/>
		<stop  offset="1" style="stop-color:#017731"/>
	</linearGradient>
	<path fill="url(#XMLID_14_)" d="M75.636,88.796c-4.511,0-22.05,0-46.034,0V67.784c0-1.309,1.061-2.37,2.37-2.37h41.294
		c1.309,0,2.37,1.062,2.37,2.37V88.796z"/>
	<linearGradient id="XMLID_15_" gradientUnits="userSpaceOnUse" x1="35.522" y1="67.3799" x2="77.8694" y2="94.5583">
		<stop  offset="0" style="stop-color:#FFFFFF"/>
		<stop  offset="1" style="stop-color:#7C7C7C"/>
	</linearGradient>
	<path fill="url(#XMLID_15_)" d="M74.689,89.27c-4.511,0-20.155,0-44.139,0V68.732c0-1.31,1.061-2.37,2.369-2.37h39.398
		c1.31,0,2.371,1.061,2.371,2.37V89.27z"/>
	<linearGradient id="XMLID_16_" gradientUnits="userSpaceOnUse" x1="53.5737" y1="30.3472" x2="29.5421" y2="58.411">
		<stop  offset="0" style="stop-color:#25BF4C"/>
		<stop  offset="1" style="stop-color:#017731"/>
	</linearGradient>
	<path fill="url(#XMLID_16_)" d="M80.903,46.264c0,1.309-1.061,2.37-2.37,2.37H26.705c-1.309,0-2.37-1.062-2.37-2.37v-30.48
		c15.979,0,47.029,0,56.568,0V46.264z"/>
	<linearGradient id="XMLID_17_" gradientUnits="userSpaceOnUse" x1="28.2866" y1="14.7358" x2="80.0761" y2="48.7486">
		<stop  offset="0" style="stop-color:#FFFFFF"/>
		<stop  offset="1" style="stop-color:#7C7C7C"/>
	</linearGradient>
	<path fill="url(#XMLID_17_)" d="M79.955,45.316c0,1.309-1.061,2.371-2.369,2.371H27.654c-1.31,0-2.371-1.062-2.371-2.371V14.836
		c15.979,0,45.132,0,54.672,0V45.316z"/>
	<linearGradient id="XMLID_18_" gradientUnits="userSpaceOnUse" x1="48.3989" y1="87.8174" x2="38.9186" y2="75.493">
		<stop  offset="0" style="stop-color:#327A29"/>
		<stop  offset="1" style="stop-color:#233C17"/>
	</linearGradient>
	<path fill="url(#XMLID_18_)" stroke="#3A7C06" stroke-width="0.7111" d="M48.422,84.54c0,1.309-1.062,2.37-2.371,2.37h-6.686
		c-1.31,0-2.37-1.062-2.37-2.37V76.3c0-1.309,1.061-2.369,2.37-2.369h6.686c1.31,0,2.371,1.061,2.371,2.369V84.54z"/>
	<linearGradient id="XMLID_19_" gradientUnits="userSpaceOnUse" x1="52.6187" y1="28.7627" x2="52.6187" y2="35.3992">
		<stop  offset="0" style="stop-color:#6DC386"/>
		<stop  offset="0.9021" style="stop-color:#39A15E"/>
	</linearGradient>
	<path fill="url(#XMLID_19_)" stroke="#EAEAEA" stroke-width="0.474" d="M77.515,32.508c0,1.31-1.061,2.371-2.369,2.371H30.092
		c-1.31,0-2.37-1.061-2.37-2.371V31.23c0-1.309,1.061-2.37,2.37-2.37h45.054c1.309,0,2.369,1.062,2.369,2.37V32.508z"/>
	<linearGradient id="XMLID_20_" gradientUnits="userSpaceOnUse" x1="52.6187" y1="19.9927" x2="52.6187" y2="26.8663">
		<stop  offset="0" style="stop-color:#6DC386"/>
		<stop  offset="0.9021" style="stop-color:#39A15E"/>
	</linearGradient>
	<path fill="url(#XMLID_20_)" stroke="#EAEAEA" stroke-width="0.474" d="M77.515,23.569c0,1.309-1.061,2.37-2.369,2.37H30.092
		c-1.31,0-2.37-1.061-2.37-2.37v-1.278c0-1.309,1.061-2.37,2.37-2.37h45.054c1.309,0,2.369,1.062,2.369,2.37V23.569z"/>
	<linearGradient id="XMLID_21_" gradientUnits="userSpaceOnUse" x1="52.6187" y1="38.0068" x2="52.6187" y2="43.9319">
		<stop  offset="0" style="stop-color:#6DC386"/>
		<stop  offset="0.9021" style="stop-color:#39A15E"/>
	</linearGradient>
	<path fill="url(#XMLID_21_)" stroke="#EAEAEA" stroke-width="0.474" d="M77.515,41.447c0,1.31-1.061,2.37-2.369,2.37H30.092
		c-1.31,0-2.37-1.061-2.37-2.37v-1.279c0-1.309,1.061-2.37,2.37-2.37h45.054c1.309,0,2.369,1.061,2.369,2.37V41.447z"/>
	<path opacity="0.6" fill="#D2EFF9" d="M25.677,14.7c0,0-9.836-1.877-10.745,7.11c0,6.004,0,60.678,0,60.678s-0.039,3.74,2.69,5.567
		c0,0-1.367-2.053-1.367-5.549c0-2.488,0-60.795,0-60.795S16.078,15.43,25.677,14.7z"/>
	<linearGradient id="XMLID_22_" gradientUnits="userSpaceOnUse" x1="74.9185" y1="53.0361" x2="90.3052" y2="53.0361">
		<stop  offset="0" style="stop-color:#27447D"/>
		<stop  offset="1" style="stop-color:#1C2958"/>
	</linearGradient>
	<path opacity="0.3" fill="url(#XMLID_22_)" d="M87.891,16.474c0,0,0.774,2.415,0.774,5.336c0,2.923,0,54.119,0,54.119
		L76.577,88.491l-1.658,1.107h2.551l12.836-12.836V21.811C90.305,21.811,90.367,18.95,87.891,16.474z"/>
</g>
</svg>
